src/icon/entity/chat-photo/icon_chat-photo_m_white.svg

<svg xmlns="http://www.w3.org/2000/svg" width="24" height="24" viewBox="0 0 24 24"><g fill="none" fill-rule="evenodd"><polygon points="0 0 24 0 24 24 0 24"/><rect width="18" height="13" x="4.5" y="7.5" stroke="#FFF" rx="2"/><circle cx="8" cy="11" r="1" fill="#FFF" fill-rule="nonzero" opacity=".3"/><path fill="#FFF" fill-rule="nonzero" d="M10.6545082,18 L7.48679361,18 C7.21065124,18 6.98679361,17.7761424 6.98679361,17.5 C6.98679361,17.3740066 7.03435999,17.2526578 7.11997874,17.1602253 L9.65685396,14.4214588 C10.0321587,14.0162862 10.6648606,13.9920736 11.0700331,14.3673784 C11.0887429,14.384709 11.1067829,14.402749 11.1241135,14.4214588 L12.3498971,15.7447935 L14.7836426,12.5074249 C15.1155124,12.0659718 15.7424145,11.9771369 16.1838677,12.3090066 C16.2590041,12.3654916 16.325801,12.4322886 16.382286,12.5074249 L19.9096677,17.1995483 C20.0756025,17.4202749 20.0311851,17.733726 19.8104585,17.8996608 C19.7238293,17.9647858 19.6183852,18 19.5100068,18 L10.6545082,18 Z" opacity=".3"/><path stroke="#FFF" d="M4.1303387,16.5 L19.5,6.7254347 L19.5,4.90909091 C19.5,4.13418329 18.8470724,3.5 18.0344828,3.5 L2.96551724,3.5 C2.15292763,3.5 1.5,4.13418329 1.5,4.90909091 L1.5,15.0909091 C1.5,15.8658167 2.15292763,16.5 2.96551724,16.5 L4.1303387,16.5 Z"/></g></svg>

<svg xmlns="http://www.w3.org/2000/svg" width="24" height="24" viewBox="0 0 24 24"><g fill="none" fill-rule="evenodd"><path d="M0 0h24v24H0z"/><rect width="18" height="13" x="4.5" y="7.5" stroke="#FFF" rx="2"/><circle cx="8" cy="11" r="1" fill="#FFF" fill-rule="nonzero" opacity=".3"/><path fill="#FFF" fill-rule="nonzero" d="M10.655 18H7.487a.5.5 0 0 1-.367-.84l2.537-2.739a1 1 0 0 1 1.467 0l1.226 1.324 2.434-3.238a1 1 0 0 1 1.598 0L19.91 17.2a.5.5 0 0 1-.4.8h-8.855z" opacity=".3"/><path stroke="#FFF" d="M4.13 16.5L19.5 6.725V4.91c0-.775-.653-1.409-1.466-1.409H2.966c-.813 0-1.466.634-1.466 1.41v10.18c0 .776.653 1.41 1.466 1.41H4.13z"/></g></svg>
